X:38
T: Woo'd and Married And A' 
N: HA038
O: Europa, Mitteleuropa, Deutschland
M: 9/8
L: 1/16
K: Dm
f2 | _c4B2A3BG2F4
F2 | A3B_c2c2f2A2c4
d2 | _c3dB2A3BG2F3
GA2 | D4d2d3ec2d4
f2 | _c4e2f3ge2f4
c2 | A4_c2c2f2A2c4
d2 | _c2d2e2f3gf2e2d2
c2 | A4d2d2e2c2d6
_c2d2e2f3ge2f6
A4c2c2d2A2c4
f2 | _c2d2B2A2B2A2G3
GA2 | D4d2d2e2c2d6
_c4B2A3BG2F6
A2B2c2c3dA2c4
f2 | _c2d2B2A2B2A2G3
GA2 | D4d2d3ec2d4

